X: 201507
T: Taidhg a R\'un
S: B.Breathnach: "Ceol Rince na hEireann" II/150i 
Z: B.Black
L: 1/8
M: 4/4
R: reel
K: G
GE|DEGA B2 BB|c2 Ac B2 GE|DEGA Bdge|dBAB G2 G2|
DEGA B2 BB|c2 Ac B2 GE|DEGA Bdge|dBAB G2 z2||
dd/^c/dd =cded|d2 dB ABGA|Bd/^c/dd edge|dBAB G2 G2|
dd/^c/dd =c3z|(3BcB GB A2 GE|DEGA Bdge|dBAB G2 G2||
